X:128
T:Teetotaller, The
S:Brendan Walsh
M:4/4
L:1/8
R:Reel
Q:1/4=190
K:Dmix
ge|"D"dBAc "G" BGGA|BcBA "Em"B2 ge|"D7"dBAc "G"BGGB|"Am"Aaag "D"a2ge|
|"D"dBAc "G" BGGA|BcBA "Em"B2 GB|"D7"dBAc "G"BGBd|"Am"eaag "D"a2||
ef|"G"gfge gbae|gfga "Em"beef|"G"gfga "Em"bagf|"Am"eaag "D"a2ef|
"G" gfge gbae|gfga "Em"beeg|"G"(3BAG af "Em"gfed|"Am"eaag "D"a2||

